outputs/icons/audio_video/volume_off_sharp.svg

<svg width="1200" height="1200" viewBox="0 0 1200 1200" fill="none" xmlns="http://www.w3.org/2000/svg"><g clip-path="url(#clip0_124_1164)"><path d="M216.996 146.509L146.496 217.009L364.497 435.009L349.997 450.009H149.996V750.01H349.997L599.995 1000.01V670.51L808.995 879.51C776.495 904.01 739.995 923.51 699.995 935.01V1038.01C766.995 1023.01 828.495 992.01 880.495 950.51L982.995 1053.01L1053.495 982.51L216.996 146.509ZM949.995 600.01C949.995 641.01 942.495 680.51 929.495 717.01L1005.995 793.51C1033.995 735.01 1049.995 669.51 1049.995 600.01C1049.995 386.009 900.495 207.009 699.995 161.509V264.509C844.495 307.509 949.995 441.509 949.995 600.01ZM599.995 200.009L505.995 294.009L599.995 388.009V200.009ZM824.995 600.01C824.995 511.51 773.995 435.509 699.995 398.509V488.009L823.995 612.01C824.495 608.01 824.995 604.01 824.995 600.01Z" fill="#1D1E23"/></g><defs><clipPath id="clip0_124_1164"><path width="24" fill="white" d="M0 0H1200V1200H0V0z"/></clipPath></defs></svg>

<svg xmlns="http://www.w3.org/2000/svg" width="1200" height="1200" fill="none"><g clip-path="url(#a)"><path fill="#000" d="m217 146.509-70.5 70.5 218 218-14.5 15H149.999V750.01H350l250 250v-329.5l209 209c-32.5 24.5-69 44-109 55.5v103c67-15 128.5-46 180.5-87.5l102.5 102.5 70.5-70.5zM950 600.01c0 41-7.5 80.5-20.5 117l76.5 76.5c28-58.5 44-124 44-193.5 0-214.001-149.5-393.001-350-438.501v103c144.5 43 250 177 250 335.501M600 200.009l-94 94 94 94zM825 600.01c0-88.5-51-164.501-125-201.501v89.5L824 612.01c.5-4 1-8 1-12"/></g><defs><clipPath id="a"><path fill="#fff" d="M0 0h1200v1200H0z"/></clipPath></defs></svg>
